images/svg/Action_France.svg

<?xml version="1.0" encoding="UTF-8" standalone="no"?>
<!-- Created with Inkscape (http://www.inkscape.org/) -->

<svg
   xmlns:dc="http://purl.org/dc/elements/1.1/"
   xmlns:cc="http://creativecommons.org/ns#"
   xmlns:rdf="http://www.w3.org/1999/02/22-rdf-syntax-ns#"
   xmlns:svg="http://www.w3.org/2000/svg"
   xmlns="http://www.w3.org/2000/svg"
   version="1.1"
   width="50"
   height="12"
   viewBox="0 0 40 9.6"
   id="svg2">
  <metadata
     id="metadata28">
    <rdf:RDF>
      <cc:Work
         rdf:about="">
        <dc:format>image/svg+xml</dc:format>
        <dc:type
           rdf:resource="http://purl.org/dc/dcmitype/StillImage" />
        <dc:title></dc:title>
      </cc:Work>
    </rdf:RDF>
  </metadata>
  <defs
     id="defs26" />
  <g
     transform="matrix(0.07352941,0,0,0.07352941,0,0.70294)"
     id="#000000ff">
    <path
       d="M 0,0 544,0 544,121 0,121 0,0 m 30.33,51.55 c -2.61,13.11 -5.4,26.19 -8.07,39.29 5.14,-0.04 10.29,0.02 15.43,-0.04 1.24,-6.62 2.76,-13.19 4.04,-19.8 19.7,0 39.39,0 59.09,0 -1.19,6.63 -2.76,13.19 -3.9,19.83 4.62,0.01 9.24,-0.04 13.86,0.03 3.04,-13.22 5.4,-26.6 8.34,-39.84 0.97,-4.27 0.73,-8.95 -1.47,-12.81 -2.86,-5.18 -8.78,-8.15 -14.61,-8.01 C 87.33,30.15 71.62,30.18 55.91,30.18 43.77,29.9 32.25,39.57 30.33,51.55 m 96.17,-3.4 c -1.4,5.52 -2.27,11.15 -3.57,16.69 -1.01,4.95 -2.59,10.19 -0.8,15.16 1.91,6.39 8.38,10.75 14.95,10.79 15.98,0.09 31.97,0.01 47.95,0.04 11.9,0.3 23.09,-8.93 25.51,-20.51 -4.7,0.06 -9.41,0.04 -14.11,0 -0.6,3.2 -2.97,6.46 -6.55,6.29 -16.5,0.02 -33.01,0.11 -49.5,-0.04 -2.8,0.14 -4.25,-3.14 -3.42,-5.49 1.55,-7.32 2.89,-14.69 4.59,-21.97 0.64,-2.89 3.52,-4.93 6.44,-4.69 16.3,0.02 32.6,-0.04 48.9,0.03 3.19,-0.2 4.33,3.43 3.6,6.01 4.71,-0.07 9.42,-0.05 14.14,-0.02 1.07,-5.79 -0.26,-12.33 -4.99,-16.2 -3.1,-2.9 -7.47,-4.08 -11.64,-4.05 -15.7,-0.02 -31.41,-0.02 -47.12,0 -10.85,-0.12 -21.15,7.68 -24.38,17.96 m 96.74,-18.01 c -1.18,4.61 -2.43,9.2 -3.36,13.86 12.27,0.01 24.55,-0.02 36.82,0.02 -3.03,15.62 -6.33,31.2 -9.56,46.78 4.93,0.06 9.85,-0.01 14.78,0.05 3.32,-15.6 6.37,-31.27 9.74,-46.86 12.26,-0.02 24.53,0.08 36.79,-0.05 1.05,-4.6 2.21,-9.17 3.35,-13.75 -29.52,-0.06 -59.04,0.04 -88.56,-0.05 m 96.31,0.04 c -4.06,20.23 -8.29,40.43 -12.42,60.64 4.93,0.01 9.86,0 14.79,0.01 4.16,-20.23 8.32,-40.46 12.48,-60.69 -4.95,0.07 -9.9,0.01 -14.85,0.04 m 41.67,0.07 c -11.05,0.75 -21.19,9.57 -23.19,20.52 -1.48,6.68 -2.8,13.39 -4.17,20.1 -1.19,5.09 0.16,10.7 3.58,14.66 3.16,3.46 7.84,5.36 12.5,5.28 15.7,0.04 31.39,0 47.09,0.02 11.7,0.3 23,-8.49 25.45,-19.96 1.39,-6.34 2.59,-12.73 3.95,-19.07 0.95,-4.57 1.02,-9.64 -1.43,-13.77 -2.93,-5.24 -9.09,-8 -14.95,-7.85 -16.27,0.03 -32.55,-0.09 -48.83,0.07 m 71.82,20.55 c -2.73,13.34 -5.64,26.64 -8.14,40.02 5.12,0.01 10.23,0 15.36,0.01 2.64,-13.61 5.42,-27.2 8.24,-40.77 0.37,-3.09 3.23,-5.87 6.43,-5.63 16.32,-0.01 32.65,-0.03 48.98,0.01 2.35,-0.23 3.8,1.92 4.13,3.99 -3.07,14.09 -5.66,28.29 -8.74,42.38 4.7,0.03 9.41,0.01 14.12,0.01 2.65,-13.57 5.64,-27.07 8.31,-40.63 0.9,-5.06 0.09,-10.65 -3.42,-14.59 -3.33,-3.71 -8.39,-5.53 -13.31,-5.42 -15.36,-0.01 -30.71,0 -46.07,-0.01 -12.05,-0.52 -23.72,8.77 -25.89,20.63 z"
       id="path5"
       style="fill:#000000" />
    <path
       d="m 51.36,44.49 c 16.56,-0.16 33.13,-0.03 49.69,-0.06 2.08,-0.22 4.38,1.25 4.31,3.52 -0.06,2.89 -1.05,5.66 -1.49,8.51 -19.75,0.02 -39.49,0 -59.24,0.01 1.15,-4.35 0.89,-11.3 6.73,-11.98 z"
       id="path7"
       style="fill:#000000" />
    <path
       d="m 353.6,49.35 c 0.55,-2.95 3.36,-5.1 6.35,-4.93 16.31,0.01 32.64,-0.03 48.96,0.02 2.34,-0.23 3.76,1.94 4.12,3.98 -1.86,8.08 -3.32,16.25 -5.15,24.34 -1.16,2.17 -3.36,4 -5.94,3.86 -15.66,0.07 -31.32,-0.02 -46.98,0.04 -1.66,0.07 -3.3,-0.22 -4.9,-0.65 -0.46,-1.28 -1.53,-2.53 -1.09,-3.97 1.49,-7.57 3,-15.15 4.63,-22.69 z"
       id="path9"
       style="fill:#000000" />
  </g>
  <g
     transform="matrix(0.07352941,0,0,0.07352941,0,0.70294)"
     id="#ffffffff">
    <path
       d="M 30.33,51.55 C 32.25,39.57 43.77,29.9 55.91,30.18 c 15.71,0 31.42,-0.03 47.13,0.02 5.83,-0.14 11.75,2.83 14.61,8.01 2.2,3.86 2.44,8.54 1.47,12.81 -2.94,13.24 -5.3,26.62 -8.34,39.84 -4.62,-0.07 -9.24,-0.02 -13.86,-0.03 1.14,-6.64 2.71,-13.2 3.9,-19.83 -19.7,0 -39.39,0 -59.09,0 -1.28,6.61 -2.8,13.18 -4.04,19.8 -5.14,0.06 -10.29,0 -15.43,0.04 2.67,-13.1 5.46,-26.18 8.07,-39.29 m 21.03,-7.06 c -5.84,0.68 -5.58,7.63 -6.73,11.98 19.75,-0.01 39.49,0.01 59.24,-0.01 0.44,-2.85 1.43,-5.62 1.49,-8.51 0.07,-2.27 -2.23,-3.74 -4.31,-3.52 -16.56,0.03 -33.13,-0.1 -49.69,0.06 z"
       id="path12"
       style="fill:#ffffff" />
    <path
       d="m 126.5,48.15 c 3.23,-10.28 13.53,-18.08 24.38,-17.96 15.71,-0.02 31.42,-0.02 47.12,0 4.17,-0.03 8.54,1.15 11.64,4.05 4.73,3.87 6.06,10.41 4.99,16.2 -4.72,-0.03 -9.43,-0.05 -14.14,0.02 0.73,-2.58 -0.41,-6.21 -3.6,-6.01 -16.3,-0.07 -32.6,-0.01 -48.9,-0.03 -2.92,-0.24 -5.8,1.8 -6.44,4.69 -1.7,7.28 -3.04,14.65 -4.59,21.97 -0.83,2.35 0.62,5.63 3.42,5.49 16.49,0.15 33,0.06 49.5,0.04 3.58,0.17 5.95,-3.09 6.55,-6.29 4.7,0.04 9.41,0.06 14.11,0 -2.42,11.58 -13.61,20.81 -25.51,20.51 -15.98,-0.03 -31.97,0.05 -47.95,-0.04 -6.57,-0.04 -13.04,-4.4 -14.95,-10.79 -1.79,-4.97 -0.21,-10.21 0.8,-15.16 1.3,-5.54 2.17,-11.17 3.57,-16.69 z"
       id="path14"
       style="fill:#ffffff" />
    <path
       d="m 223.24,30.14 c 29.52,0.09 59.04,-0.01 88.56,0.05 -1.14,4.58 -2.3,9.15 -3.35,13.75 -12.26,0.13 -24.53,0.03 -36.79,0.05 -3.37,15.59 -6.42,31.26 -9.74,46.86 -4.93,-0.06 -9.85,0.01 -14.78,-0.05 3.23,-15.58 6.53,-31.16 9.56,-46.78 -12.27,-0.04 -24.55,-0.01 -36.82,-0.02 0.93,-4.66 2.18,-9.25 3.36,-13.86 z"
       id="path16"
       style="fill:#ffffff" />
    <path
       d="m 319.55,30.18 c 4.95,-0.03 9.9,0.03 14.85,-0.04 -4.16,20.23 -8.32,40.46 -12.48,60.69 -4.93,-0.01 -9.86,0 -14.79,-0.01 4.13,-20.21 8.36,-40.41 12.42,-60.64 z"
       id="path18"
       style="fill:#ffffff" />
    <path
       d="m 361.22,30.25 c 16.28,-0.16 32.56,-0.04 48.83,-0.07 5.86,-0.15 12.02,2.61 14.95,7.85 2.45,4.13 2.38,9.2 1.43,13.77 -1.36,6.34 -2.56,12.73 -3.95,19.07 -2.45,11.47 -13.75,20.26 -25.45,19.96 -15.7,-0.02 -31.39,0.02 -47.09,-0.02 -4.66,0.08 -9.34,-1.82 -12.5,-5.28 -3.42,-3.96 -4.77,-9.57 -3.58,-14.66 1.37,-6.71 2.69,-13.42 4.17,-20.1 2,-10.95 12.14,-19.77 23.19,-20.52 m -7.62,19.1 c -1.63,7.54 -3.14,15.12 -4.63,22.69 -0.44,1.44 0.63,2.69 1.09,3.97 1.6,0.43 3.24,0.72 4.9,0.65 15.66,-0.06 31.32,0.03 46.98,-0.04 2.58,0.14 4.78,-1.69 5.94,-3.86 1.83,-8.09 3.29,-16.26 5.15,-24.34 -0.36,-2.04 -1.78,-4.21 -4.12,-3.98 -16.32,-0.05 -32.65,-0.01 -48.96,-0.02 -2.99,-0.17 -5.8,1.98 -6.35,4.93 z"
       id="path20"
       style="fill:#ffffff" />
    <path
       d="m 433.04,50.8 c 2.17,-11.86 13.84,-21.15 25.89,-20.63 15.36,0.01 30.71,0 46.07,0.01 4.92,-0.11 9.98,1.71 13.31,5.42 3.51,3.94 4.32,9.53 3.42,14.59 -2.67,13.56 -5.66,27.06 -8.31,40.63 -4.71,0 -9.42,0.02 -14.12,-0.01 3.08,-14.09 5.67,-28.29 8.74,-42.38 -0.33,-2.07 -1.78,-4.22 -4.13,-3.99 -16.33,-0.04 -32.66,-0.02 -48.98,-0.01 -3.2,-0.24 -6.06,2.54 -6.43,5.63 -2.82,13.57 -5.6,27.16 -8.24,40.77 -5.13,-0.01 -10.24,0 -15.36,-0.01 2.5,-13.38 5.41,-26.68 8.14,-40.02 z"
       id="path22"
       style="fill:#ffffff" />
  </g>
</svg>

<?xml version="1.0" encoding="UTF-8" ?>
<!DOCTYPE svg PUBLIC "-//W3C//DTD SVG 1.1//EN" "http://www.w3.org/Graphics/SVG/1.1/DTD/svg11.dtd">
<svg width="544pt" height="121pt" viewBox="0 0 544 121" version="1.1" xmlns="http://www.w3.org/2000/svg">
<g id="#000000ff">
<path fill="#000000" opacity="1.00" d=" M 0.00 0.00 L 544.00 0.00 L 544.00 121.00 L 0.00 121.00 L 0.00 0.00 M 30.33 51.55 C 27.72 64.66 24.93 77.74 22.26 90.84 C 27.40 90.80 32.55 90.86 37.69 90.80 C 38.93 84.18 40.45 77.61 41.73 71.00 C 61.43 71.00 81.12 71.00 100.82 71.00 C 99.63 77.63 98.06 84.19 96.92 90.83 C 101.54 90.84 106.16 90.79 110.78 90.86 C 113.82 77.64 116.18 64.26 119.12 51.02 C 120.09 46.75 119.85 42.07 117.65 38.21 C 114.79 33.03 108.87 30.06 103.04 30.20 C 87.33 30.15 71.62 30.18 55.91 30.18 C 43.77 29.90 32.25 39.57 30.33 51.55 M 126.50 48.15 C 125.10 53.67 124.23 59.30 122.93 64.84 C 121.92 69.79 120.34 75.03 122.13 80.00 C 124.04 86.39 130.51 90.75 137.08 90.79 C 153.06 90.88 169.05 90.80 185.03 90.83 C 196.93 91.13 208.12 81.90 210.54 70.32 C 205.84 70.38 201.13 70.36 196.43 70.32 C 195.83 73.52 193.46 76.78 189.88 76.61 C 173.38 76.63 156.87 76.72 140.38 76.57 C 137.58 76.71 136.13 73.43 136.96 71.08 C 138.51 63.76 139.85 56.39 141.55 49.11 C 142.19 46.22 145.07 44.18 147.99 44.42 C 164.29 44.44 180.59 44.38 196.89 44.45 C 200.08 44.25 201.22 47.88 200.49 50.46 C 205.20 50.39 209.91 50.41 214.63 50.44 C 215.70 44.65 214.37 38.11 209.64 34.24 C 206.54 31.34 202.17 30.16 198.00 30.19 C 182.30 30.17 166.59 30.17 150.88 30.19 C 140.03 30.07 129.73 37.87 126.50 48.15 M 223.24 30.14 C 222.06 34.75 220.81 39.34 219.88 44.00 C 232.15 44.01 244.43 43.98 256.70 44.02 C 253.67 59.64 250.37 75.22 247.14 90.80 C 252.07 90.86 256.99 90.79 261.92 90.85 C 265.24 75.25 268.29 59.58 271.66 43.99 C 283.92 43.97 296.19 44.07 308.45 43.94 C 309.50 39.34 310.66 34.77 311.80 30.19 C 282.28 30.13 252.76 30.23 223.24 30.14 M 319.55 30.18 C 315.49 50.41 311.26 70.61 307.13 90.82 C 312.06 90.83 316.99 90.82 321.92 90.83 C 326.08 70.60 330.24 50.37 334.40 30.14 C 329.45 30.21 324.50 30.15 319.55 30.18 M 361.22 30.25 C 350.17 31.00 340.03 39.82 338.03 50.77 C 336.55 57.45 335.23 64.16 333.86 70.87 C 332.67 75.96 334.02 81.57 337.44 85.53 C 340.60 88.99 345.28 90.89 349.94 90.81 C 365.64 90.85 381.33 90.81 397.03 90.83 C 408.73 91.13 420.03 82.34 422.48 70.87 C 423.87 64.53 425.07 58.14 426.43 51.80 C 427.38 47.23 427.45 42.16 425.00 38.03 C 422.07 32.79 415.91 30.03 410.05 30.18 C 393.78 30.21 377.50 30.09 361.22 30.25 M 433.04 50.80 C 430.31 64.14 427.40 77.44 424.90 90.82 C 430.02 90.83 435.13 90.82 440.26 90.83 C 442.90 77.22 445.68 63.63 448.50 50.06 C 448.87 46.97 451.73 44.19 454.93 44.43 C 471.25 44.42 487.58 44.40 503.91 44.44 C 506.26 44.21 507.71 46.36 508.04 48.43 C 504.97 62.52 502.38 76.72 499.30 90.81 C 504.00 90.84 508.71 90.82 513.42 90.82 C 516.07 77.25 519.06 63.75 521.73 50.19 C 522.63 45.13 521.82 39.54 518.31 35.60 C 514.98 31.89 509.92 30.07 505.00 30.18 C 489.64 30.17 474.29 30.18 458.93 30.17 C 446.88 29.65 435.21 38.94 433.04 50.80 Z" />
<path fill="#000000" opacity="1.00" d=" M 51.36 44.49 C 67.92 44.33 84.49 44.46 101.05 44.43 C 103.13 44.21 105.43 45.68 105.36 47.95 C 105.30 50.84 104.31 53.61 103.87 56.46 C 84.12 56.48 64.38 56.46 44.63 56.47 C 45.78 52.12 45.52 45.17 51.36 44.49 Z" />
<path fill="#000000" opacity="1.00" d=" M 353.60 49.35 C 354.15 46.40 356.96 44.25 359.95 44.42 C 376.26 44.43 392.59 44.39 408.91 44.44 C 411.25 44.21 412.67 46.38 413.03 48.42 C 411.17 56.50 409.71 64.67 407.88 72.76 C 406.72 74.93 404.52 76.76 401.94 76.62 C 386.28 76.69 370.62 76.60 354.96 76.66 C 353.30 76.73 351.66 76.44 350.06 76.01 C 349.60 74.73 348.53 73.48 348.97 72.04 C 350.46 64.47 351.97 56.89 353.60 49.35 Z" />
</g>
<g id="#ffffffff">
<path fill="#ffffff" opacity="1.00" d=" M 30.33 51.55 C 32.25 39.57 43.77 29.90 55.91 30.18 C 71.62 30.18 87.33 30.15 103.04 30.20 C 108.87 30.06 114.79 33.03 117.65 38.21 C 119.85 42.07 120.09 46.75 119.12 51.02 C 116.18 64.26 113.82 77.64 110.78 90.86 C 106.16 90.79 101.54 90.84 96.92 90.83 C 98.06 84.19 99.63 77.63 100.82 71.00 C 81.12 71.00 61.43 71.00 41.73 71.00 C 40.45 77.61 38.93 84.18 37.69 90.80 C 32.55 90.86 27.40 90.80 22.26 90.84 C 24.93 77.74 27.72 64.66 30.33 51.55 M 51.36 44.49 C 45.52 45.17 45.78 52.12 44.63 56.47 C 64.38 56.46 84.12 56.48 103.87 56.46 C 104.31 53.61 105.30 50.84 105.36 47.95 C 105.43 45.68 103.13 44.21 101.05 44.43 C 84.49 44.46 67.92 44.33 51.36 44.49 Z" />
<path fill="#ffffff" opacity="1.00" d=" M 126.50 48.15 C 129.73 37.87 140.03 30.07 150.88 30.19 C 166.59 30.17 182.30 30.17 198.00 30.19 C 202.17 30.16 206.54 31.34 209.64 34.24 C 214.37 38.11 215.70 44.65 214.63 50.44 C 209.91 50.41 205.20 50.39 200.49 50.46 C 201.22 47.88 200.08 44.25 196.89 44.45 C 180.59 44.38 164.29 44.44 147.99 44.42 C 145.07 44.18 142.19 46.22 141.55 49.11 C 139.85 56.39 138.51 63.76 136.96 71.08 C 136.13 73.43 137.58 76.71 140.38 76.57 C 156.87 76.72 173.38 76.63 189.88 76.61 C 193.46 76.78 195.83 73.52 196.43 70.32 C 201.13 70.36 205.84 70.38 210.54 70.32 C 208.12 81.90 196.93 91.13 185.03 90.83 C 169.05 90.80 153.06 90.88 137.08 90.79 C 130.51 90.75 124.04 86.39 122.13 80.00 C 120.34 75.03 121.92 69.79 122.93 64.84 C 124.23 59.30 125.10 53.67 126.50 48.15 Z" />
<path fill="#ffffff" opacity="1.00" d=" M 223.24 30.14 C 252.76 30.23 282.28 30.13 311.80 30.19 C 310.66 34.77 309.50 39.34 308.45 43.94 C 296.19 44.07 283.92 43.97 271.66 43.99 C 268.29 59.58 265.24 75.25 261.92 90.85 C 256.99 90.79 252.07 90.86 247.14 90.80 C 250.37 75.22 253.67 59.64 256.70 44.02 C 244.43 43.98 232.15 44.01 219.88 44.00 C 220.81 39.34 222.06 34.75 223.24 30.14 Z" />
<path fill="#ffffff" opacity="1.00" d=" M 319.55 30.18 C 324.50 30.15 329.45 30.21 334.40 30.14 C 330.24 50.37 326.08 70.60 321.92 90.83 C 316.99 90.82 312.06 90.83 307.13 90.82 C 311.26 70.61 315.49 50.41 319.55 30.18 Z" />
<path fill="#ffffff" opacity="1.00" d=" M 361.22 30.25 C 377.50 30.09 393.78 30.21 410.05 30.18 C 415.91 30.03 422.07 32.79 425.00 38.03 C 427.45 42.16 427.38 47.23 426.43 51.80 C 425.07 58.14 423.87 64.53 422.48 70.87 C 420.03 82.34 408.73 91.13 397.03 90.83 C 381.33 90.81 365.64 90.85 349.94 90.81 C 345.28 90.89 340.60 88.99 337.44 85.53 C 334.02 81.57 332.67 75.96 333.86 70.87 C 335.23 64.16 336.55 57.45 338.03 50.77 C 340.03 39.82 350.17 31.00 361.22 30.25 M 353.60 49.35 C 351.97 56.89 350.46 64.47 348.97 72.04 C 348.53 73.48 349.60 74.73 350.06 76.01 C 351.66 76.44 353.30 76.73 354.96 76.66 C 370.62 76.60 386.28 76.69 401.94 76.62 C 404.52 76.76 406.72 74.93 407.88 72.76 C 409.71 64.67 411.17 56.50 413.03 48.42 C 412.67 46.38 411.25 44.21 408.91 44.44 C 392.59 44.39 376.26 44.43 359.95 44.42 C 356.96 44.25 354.15 46.40 353.60 49.35 Z" />
<path fill="#ffffff" opacity="1.00" d=" M 433.04 50.80 C 435.21 38.94 446.88 29.65 458.93 30.17 C 474.29 30.18 489.64 30.17 505.00 30.18 C 509.92 30.07 514.98 31.89 518.31 35.60 C 521.82 39.54 522.63 45.13 521.73 50.19 C 519.06 63.75 516.07 77.25 513.42 90.82 C 508.71 90.82 504.00 90.84 499.30 90.81 C 502.38 76.72 504.97 62.52 508.04 48.43 C 507.71 46.36 506.26 44.21 503.91 44.44 C 487.58 44.40 471.25 44.42 454.93 44.43 C 451.73 44.19 448.87 46.97 448.50 50.06 C 445.68 63.63 442.90 77.22 440.26 90.83 C 435.13 90.82 430.02 90.83 424.90 90.82 C 427.40 77.44 430.31 64.14 433.04 50.80 Z" />
</g>
</svg>
